X: 29399
T: Nick Sheridan's Farewell
R: reel
M: 4/4
K: Dmajor
c|:d3 e dBAd|Beef edBc|d2 fe dBAF|EFGA BAFA|
d2 ce dBAd|Beef edBc|dBAF G2 GB|1 AGFD EFGA:|2 AGFD EFGE|
|:Adde fded|cEEF G2 E/F/G|Adde fded|cAGE FD E/F/G|
Addg fded|cdBG EFGc|d3 e fded|1 cAGE FD E/F/G:|2 cAGE D3|

